!!!OTL: The Mountain Streams, S. 76
!!!id: I0522
**kern
*clefG2
*k[]
*a:
{16dd
16cc
8a
8g
8e
=1
4g
8e
8d
8c
8A
8c
8d
8e
=2
8g
8e
8d
4e
=3
16aaaa
16aaaa}
{16dd
16cc
8.a
16g
16e
16d
=4
8c
4g
8e
8d
8c
4A
8A
=5
[2A
8A]}
{16a}
{16dd
16cc
8a
8g
8e
=6
4g
8e
8d
8c
8A
8c
8d
8e
=7
8g
8e
8d
4e
=8
16ccccc#
16aaaa}
{16dd
16cc
8.a
16g
16e
16d
=9
8c
4g
8e
8d
8c
4A
8A
=10
[2A
8A]
8e
4a}
{8b
=11
8cc
8a
16cc
16dd
4ee
8dd
4a
8b
=12
4a
8g
4e}
=13
{8e
4a
8b
=14
8cc
8a
16cc
16dd
4ee
8dd
4a
8b
=15
4a}
=16
{8e
8g
8a
8e
4g
8a
=17
4.e
8d
8c
8A
8c
8d
8e
=18
8g
8e
8d
4e
=19
16ggggg#
16aaaa}
{16dd
16cc
8.a
16g
16e
16d
=20
8c
4g
8e
8d
8c
4A
8A
=21
[2A
8A]}
==
*-
!!!minrhy: 16
!!!meters: 9/8 ]  ZZ[8
!!!cut: The Mountain Streams, S. 76
!!!reg: Irland
!!!trd: O BOYLE, Sean: 25 Irish Folksongs, Dublin 1976
!!!rhy1: XXX_X_X_  X__X_X_X_X_X_X_X_  X_X_X_X__
!!!rhy2: XXX_.XXX  X_X__X_X_X_X__X_  X___^_
!!!key: I0522  16  A 9/8 ]  ZZ[8
!!!mod: SECHSTONSKALA MOLL ?]  AMBITUS[12
!!!kad: -5-1-51-51-5-1
!!!akz1: 1-7b-4-3b-7b-5_1-3b-5-1-1-1_1-7b-4-3b-7b-5_1-3b-5-1-1-11_3b511-5_13b511_
!!!akz2: -7b-5-4-3b-7b-5_1-3b-5-1-1-1_
!! ____-7b-5-4-3b-7b-5_1-3b-5-1-1-1_]
!!!fot: 'a__b__a__bv_c__bs"aw_b__
!!!for: 'a__b__a__bw_c__cw_d__b__
!!!fok: 'Sd_\__Sd_Vd_^d_^a_M__\__
!! PHRAS[AUFTAKTIG]
!!!fkt: Liebeslied, Standesunterschied
!! IRISCHE VKL.
!! PR[19] 2K[7] 2G[24] 3K[3] 3G[3] 4A[2] 4Ü[0] 5A[2] 6K[0] 6G[0]
!! 7K[0] 7G[0] 8A[0] MEHR[0] SI[41] ABS[59] SR[31] SP[10]
!! ST[16] 2k[3] 2g[24] 3k[3] 3g[3] 4d[3] 4ü[0] 5d[0] 6k[3] 6g[0]
!! 7k[0] 7g[0] 8d[0] mehr[0] si[41] dm[0] sr[27] sp[14]
!! 1F[31] 2F[46] 3F[8] 4F[0] LF[0] 2P[11] 3P[3] 4P[0] TRI[0] DF[5] AB[61]
!! TF[0] U3K[0] U3[0] U4[0] U4Ü[0] U5[0] U6K[0] U6[0] U7K[3] U7[3]
!! N1[15] N2K[0] N2[17] N3K[0] N3[7] N4[10] N4Ü[0] N5[22] N6K[0] N6[0]
!!!n7k: 0] N7[7] O1[13] O2K[0] O2[3] O3K[0] O3[0] HÖ[0
